components/2.0/icon/icons/icon-view-grid-large-22px.svg

<svg width="22" height="22" xmlns="http://www.w3.org/2000/svg"><path d="M13 12h6c.6 0 1 .4 1 1v6c0 .6-.4 1-1 1h-6c-.6 0-1-.4-1-1v-6c0-.6.4-1 1-1zM3 12h6c.6 0 1 .4 1 1v6c0 .6-.4 1-1 1H3c-.6 0-1-.4-1-1v-6c0-.6.4-1 1-1zM13 2h6c.6 0 1 .4 1 1v6c0 .6-.4 1-1 1h-6c-.6 0-1-.4-1-1V3c0-.6.4-1 1-1zM3 2h6c.6 0 1 .4 1 1v6c0 .6-.4 1-1 1H3c-.6 0-1-.4-1-1V3c0-.6.4-1 1-1z" fill="#3D4752" fill-rule="evenodd"/></svg>

<?xml version="1.0" encoding="UTF-8" standalone="no"?>
<svg width="22px" height="22px" viewBox="0 0 22 22" version="1.1" xmlns="http://www.w3.org/2000/svg" xmlns:xlink="http://www.w3.org/1999/xlink" xmlns:sketch="http://www.bohemiancoding.com/sketch/ns">
    <!-- Generator: Sketch 3.4.4 (17249) - http://www.bohemiancoding.com/sketch -->
    <title>icon-view-grid-large-22px</title>
    <desc>Created with Sketch.</desc>
    <defs></defs>
    <g id="22px" stroke="none" stroke-width="1" fill="none" fill-rule="evenodd" sketch:type="MSPage">
        <g id="icon-view-grid-large-22px" sketch:type="MSArtboardGroup" fill="#3D4752">
            <path d="M13,12 L19,12 C19.6,12 20,12.4 20,13 L20,19 C20,19.6 19.6,20 19,20 L13,20 C12.4,20 12,19.6 12,19 L12,13 C12,12.4 12.4,12 13,12 L13,12 Z M3,12 L9,12 C9.6,12 10,12.4 10,13 L10,19 C10,19.6 9.6,20 9,20 L3,20 C2.4,20 2,19.6 2,19 L2,13 C2,12.4 2.4,12 3,12 L3,12 Z M13,2 L19,2 C19.6,2 20,2.4 20,3 L20,9 C20,9.6 19.6,10 19,10 L13,10 C12.4,10 12,9.6 12,9 L12,3 C12,2.4 12.4,2 13,2 L13,2 Z M3,2 L9,2 C9.6,2 10,2.4 10,3 L10,9 C10,9.6 9.6,10 9,10 L3,10 C2.4,10 2,9.6 2,9 L2,3 C2,2.4 2.4,2 3,2 L3,2 Z" id="SVGID_3_" sketch:type="MSShapeGroup"></path>
        </g>
    </g>
</svg>
